dist/icons/linkedin-black-icon.svg

<svg width="30" height="30" viewBox="0 0 30 30" fill="none" xmlns="http://www.w3.org/2000/svg">
<path d="M0 24.6185C0 18.1597 0 11.691 0 5.23229C0.00997523 5.2125 0.0199505 5.18283 0.0199505 5.16305C0.0498762 4.96523 0.0598514 4.77731 0.0997523 4.57949C0.389034 3.07607 1.17708 1.86938 2.46388 0.969308C3.4215 0.296727 4.59858 0 5.77566 0C11.9703 0 18.1549 0 24.3396 0C24.6687 0 24.988 0.0197818 25.3072 0.0791272C26.8134 0.346182 28.0304 1.11767 28.9581 2.40349C29.6464 3.36291 29.9556 4.54981 29.9556 5.72683C29.9656 11.8988 29.9556 18.0806 29.9556 24.2525C29.9556 24.5393 29.9456 24.8361 29.8858 25.1229C29.5766 26.8043 28.6987 28.1099 27.2523 29.01C26.3246 29.5837 25.2274 29.831 24.1301 29.831C17.9654 29.831 11.8107 29.831 5.64598 29.831C5.1971 29.831 4.74821 29.7815 4.29932 29.6826C3.3018 29.4452 2.42398 28.9704 1.68581 28.2484C1.2469 27.8231 0.887796 27.3483 0.608489 26.8142C0.309232 26.2505 0.119703 25.657 0.0299257 25.024C0.0399009 24.8954 0.0199505 24.7569 0 24.6185ZM11.9703 11.691C11.9703 16.3398 11.9703 21.0676 11.9703 25.6867C13.5563 25.6867 15.9604 25.6867 15.9604 25.6867H16.5589C16.5589 25.6867 16.5589 19.9104 16.5988 17.319C16.5988 17.1607 16.6088 17.0025 16.6287 16.8442C16.6686 16.4684 16.8282 16.142 17.0177 15.8254C17.2871 15.3902 17.6562 15.0441 18.1449 14.866C18.5739 14.6979 19.0228 14.6781 19.4816 14.7572C19.9106 14.8364 20.2697 15.0243 20.539 15.3705C20.7585 15.6375 20.8782 15.954 20.9679 16.2903C21.0876 16.7552 21.1375 17.0618 21.1375 17.7047V25.1921V25.5977C21.1375 25.5977 24.3795 25.5977 25.9456 25.5977C25.9456 25.5482 25.9456 25.5086 25.9456 25.4691C25.9456 22.8381 25.9456 20.2071 25.9456 17.5761C25.9456 16.9827 25.9057 16.3991 25.8059 15.8156C25.5865 14.599 25.1176 13.4714 24.1201 12.5318C23.9007 12.334 23.6513 12.1559 23.3919 12.0273C22.1949 11.4141 20.948 11.2657 19.6712 11.4932C18.5839 11.691 17.726 12.2548 17.0676 13.1351C16.9479 13.2934 16.8382 13.4516 16.7285 13.6099C16.7185 13.6099 16.7185 13.6099 16.7085 13.6099C16.6985 12.967 16.6886 12.334 16.6786 11.691H11.9703V11.691ZM4.98762 11.691C4.98762 16.3299 4.98762 20.9687 4.98762 25.5977C6.67343 25.5977 8.32932 25.5977 9.97523 25.5977C9.97523 20.9588 9.97523 16.32 9.97523 11.691C8.29939 11.691 6.63353 11.691 4.98762 11.691ZM7.23204 9.65352C7.48142 9.61396 7.74078 9.60407 7.99016 9.53483C8.71835 9.35679 9.27696 8.94137 9.5862 8.24901C9.84555 7.68523 9.85553 7.10167 9.65602 6.50821C9.44654 5.90487 9.04754 5.45978 8.44902 5.19272C7.84053 4.91578 7.19214 4.896 6.54375 5.03447C5.93526 5.16305 5.42653 5.47956 5.07739 6.00378C4.75819 6.48843 4.64846 7.03243 4.72826 7.6061C4.80806 8.24901 5.10732 8.76334 5.62603 9.14908C6.10484 9.50516 6.6435 9.63374 7.23204 9.65352Z" fill="black"/>
</svg>

<svg width="30" height="30" fill="none" xmlns="http://www.w3.org/2000/svg"><path d="M0 24.619V5.232c.01-.02.02-.05.02-.069.03-.198.04-.386.08-.584C.389 3.076 1.177 1.87 2.464.97 3.422.297 4.599 0 5.776 0H24.34c.329 0 .648.02.967.08 1.506.266 2.723 1.038 3.651 2.323.688.96.998 2.147.998 3.324.01 6.172 0 12.354 0 18.526 0 .286-.01.583-.07.87-.31 1.681-1.187 2.987-2.634 3.887-.927.574-2.025.821-3.122.821H5.646c-.449 0-.898-.05-1.347-.148a5.493 5.493 0 01-2.613-1.435 5.594 5.594 0 01-1.078-1.434 5.389 5.389 0 01-.578-1.79c.01-.129-.01-.267-.03-.405zM11.97 11.69v13.996h4.589s0-5.777.04-8.368c0-.158.01-.316.03-.475.04-.376.2-.702.389-1.019.27-.435.638-.78 1.127-.959.429-.168.878-.188 1.337-.109.429.08.788.267 1.057.614.22.266.34.583.429.92.12.464.17.77.17 1.414v7.893h4.808v-8.022c0-.593-.04-1.177-.14-1.76-.22-1.217-.688-2.345-1.686-3.284a3.299 3.299 0 00-.728-.505c-1.197-.613-2.444-.761-3.72-.534-1.088.198-1.946.762-2.604 1.642-.12.158-.23.317-.34.475h-.02l-.03-1.919H11.97zm-6.982 0v13.907h4.987V11.69H4.988zm2.244-2.037c.25-.04.509-.05.758-.12.728-.177 1.287-.593 1.596-1.285.26-.564.27-1.147.07-1.74a2.163 2.163 0 00-1.207-1.316c-.608-.277-1.257-.297-1.905-.159-.609.13-1.117.446-1.467.97a2.27 2.27 0 00-.349 1.602c.08.643.38 1.157.898 1.543.479.356 1.018.485 1.606.505z" fill="#000"/></svg>
